account-front/public/assets/crypto/matic.svg

<svg width="20" height="20" viewBox="0 0 20 20" fill="none" xmlns="http://www.w3.org/2000/svg">
<path d="M10 20C15.5228 20 20 15.5228 20 10C20 4.47715 15.5228 0 10 0C4.47715 0 0 4.47715 0 10C0 15.5228 4.47715 20 10 20Z" fill="#8247E5"/>
<path d="M13.31 7.86046C13.0701 7.72094 12.7583 7.72094 12.4945 7.86046L10.6236 8.93024L9.3524 9.6279L7.48154 10.6977C7.2417 10.8372 6.92988 10.8372 6.66606 10.6977L5.17896 9.86046C4.93912 9.72092 4.77122 9.46512 4.77122 9.18604V7.53488C4.77122 7.25582 4.91512 7 5.17896 6.86046L6.64206 6.04652C6.88192 5.90698 7.19372 5.90698 7.45756 6.04652L8.92066 6.86046C9.16052 7 9.32842 7.25582 9.32842 7.53488V8.60466L10.5996 7.88372V6.81396C10.5996 6.53488 10.4557 6.27906 10.1919 6.13954L7.48154 4.60466C7.2417 4.46511 6.92988 4.46511 6.66606 4.60466L3.90774 6.13954C3.64392 6.27906 3.5 6.53488 3.5 6.81396V9.90698C3.5 10.186 3.64392 10.4419 3.90774 10.5814L6.66606 12.1163C6.9059 12.2558 7.21772 12.2558 7.48154 12.1163L9.3524 11.0698L10.6236 10.3488L12.4945 9.30232C12.7343 9.1628 13.0461 9.1628 13.31 9.30232L14.7731 10.1163C15.0129 10.2558 15.1808 10.5116 15.1808 10.7907V12.4419C15.1808 12.7209 15.0369 12.9767 14.7731 13.1163L13.31 13.9535C13.0701 14.093 12.7583 14.093 12.4945 13.9535L11.0314 13.1395C10.7915 13 10.6236 12.7442 10.6236 12.4651V11.3953L9.3524 12.1163V13.186C9.3524 13.4651 9.4963 13.7209 9.76014 13.8605L12.5185 15.3953C12.7583 15.5349 13.0701 15.5349 13.3339 15.3953L16.0923 13.8605C16.3321 13.7209 16.5 13.4651 16.5 13.186V10.093C16.5 9.81396 16.3561 9.55814 16.0923 9.4186L13.31 7.86046Z" fill="white"/>
</svg>

<svg xmlns="http://www.w3.org/2000/svg" width="20" height="20" fill="none"><path fill="#8247E5" d="M10 20c5.523 0 10-4.477 10-10S15.523 0 10 0 0 4.477 0 10s4.477 10 10 10Z"/><path fill="#fff" d="M13.31 7.86a.846.846 0 0 0-.816 0l-1.87 1.07-1.272.698-1.87 1.07a.846.846 0 0 1-.816 0L5.18 9.86a.798.798 0 0 1-.408-.674V7.535a.75.75 0 0 1 .408-.675l1.463-.813c.24-.14.552-.14.816 0l1.463.813c.24.14.407.396.407.675v1.07l1.272-.721v-1.07a.75.75 0 0 0-.408-.674l-2.71-1.535a.846.846 0 0 0-.816 0L3.908 6.14a.75.75 0 0 0-.408.674v3.093a.75.75 0 0 0 .408.674l2.758 1.535c.24.14.552.14.816 0l1.87-1.046 1.272-.721 1.87-1.047c.24-.14.552-.14.816 0l1.463.814c.24.14.408.396.408.675v1.65a.75.75 0 0 1-.408.675l-1.463.838a.847.847 0 0 1-.816 0l-1.463-.815a.798.798 0 0 1-.407-.674v-1.07l-1.272.721v1.07c0 .28.144.535.408.675l2.758 1.534c.24.14.552.14.816 0l2.758-1.534a.798.798 0 0 0 .408-.675v-3.093a.75.75 0 0 0-.408-.674L13.31 7.86Z"/></svg>
